www/assets/icons/coffee.svg

<svg xmlns="http://www.w3.org/2000/svg" width="24" height="24" viewBox="0 0 24 24" fill='currentColor'><path d="M17.5 3H5c-1.1 0-2 .9-2 2v5.71c0 3.83 2.95 7.18 6.78 7.29 3.96.12 7.22-3.06 7.22-7v-1h.5c1.93 0 3.5-1.57 3.5-3.5S19.43 3 17.5 3M15 5v3H5V5zm2.5 3H17V5h.5c.83 0 1.5.67 1.5 1.5S18.33 8 17.5 8M3 19h16v2H3z"/></svg>

<svg width="24" height="24" viewBox="0 0 24 24" xmlns="http://www.w3.org/2000/svg" fill='currentColor'><path d="M17.5 3H5C3.9 3 3 3.9 3 5V10.71C3 14.54 5.95 17.89 9.78 18C13.74 18.12 17 14.94 17 11V10H17.5C19.43 10 21 8.43 21 6.5C21 4.57 19.43 3 17.5 3ZM15 5V8H5V5H15ZM17.5 8H17V5H17.5C18.33 5 19 5.67 19 6.5C19 7.33 18.33 8 17.5 8ZM3 19H19V21H3V19Z"/></svg>
